other/boxtogopro.svg

<?xml version="1.0" encoding="UTF-8"?>
<svg version="1.1" viewBox="0 0 48 48" xmlns="http://www.w3.org/2000/svg">
    <defs>
        <style>.a{fill:none;stroke:#000;stroke-linecap:round;stroke-linejoin:round;}</style>
    </defs>
    <path d="m6.9395 26.249v15.066l4.2028 1.0329h24.896l0.4274-3.2411v-12.858h-17.766" fill="none" stop-color="#000000" stroke="#fff" stroke-linecap="round" stroke-linejoin="round" style="-inkscape-stroke:none;font-variation-settings:normal"/>
    <circle cx="14.241" cy="27.015" r="1.1175" fill="none" stroke="#fff" stroke-linecap="round" stroke-linejoin="round" style="paint-order:markers fill stroke"/>
    <circle cx="17.91" cy="27.015" r="1.1175" fill="none" stroke="#fff" stroke-linecap="round" stroke-linejoin="round" style="paint-order:markers fill stroke"/>
    <path d="m6.9395 26.249h6.459" fill="none" stop-color="#000000" stroke="#fff" stroke-linecap="round" stroke-linejoin="round" style="-inkscape-stroke:none;font-variation-settings:normal"/>
    <path d="m15.132 26.249h1.8892" fill="none" stop-color="#000000" stroke="#fff" stroke-linecap="round" stroke-linejoin="round" style="-inkscape-stroke:none;font-variation-settings:normal"/>
    <path d="m22.041 39.57v2.7937" fill="none" stop-color="#000000" stroke="#fff" stroke-linecap="round" stroke-linejoin="round" style="-inkscape-stroke:none;font-variation-settings:normal"/>
    <path d="m23.795 39.57v2.7964" fill="none" stop-color="#000000" stroke="#fff" stroke-linecap="round" stroke-linejoin="round" style="-inkscape-stroke:none;font-variation-settings:normal"/>
    <path d="m25.549 39.57v2.799" fill="none" stop-color="#000000" stroke="#fff" stroke-linecap="round" stroke-linejoin="round" style="-inkscape-stroke:none;font-variation-settings:normal"/>
    <path d="m27.303 39.57v2.8015" fill="none" stop-color="#000000" stroke="#fff" stroke-linecap="round" stroke-linejoin="round" style="-inkscape-stroke:none;font-variation-settings:normal"/>
    <path d="m29.058 39.57v2.8038" fill="none" stop-color="#000000" stroke="#fff" stroke-linecap="round" stroke-linejoin="round" style="-inkscape-stroke:none;font-variation-settings:normal"/>
    <path d="m36.189 41.228h1.7013l4.5946-0.87447v-16.954l-4.1316-1.3534h-27.781l-5.0576 1.3891v17.025l1.4247 0.06795" fill="none" stop-color="#000000" stroke="#fff" stroke-linecap="round" stroke-linejoin="round" style="-inkscape-stroke:none;font-variation-settings:normal"/>
    <path d="m9.2444 22.411-2.3761-12.011" fill="none" stop-color="#000000" stroke="#fff" stroke-linecap="round" stroke-linejoin="round" style="-inkscape-stroke:none;font-variation-settings:normal"/>
    <path d="m20.26 5.6266c0.96977 2.3649 0.62602 4.8392 0 7.3371-0.5164 2.9345-0.27946 3.7093-0.14247 4.6658 0.18636 1.175 1.2929 1.3097 1.6384 0.32055 0.66805 1.8004 2.0542 0.75737 2.1111 0.0885 0.17919 0.50724 1.1489 1.9886 2.0791-0.03976 0.35183 1.4292 1.9633 1.1938 2.0055 0.2754l0.28654-2.9954-0.11556 1.2081c0.34745 0.5556 0.96574 0.24463 0.99943-0.14104 0.28816-2.1967 0.20867-3.4121-0.13592-4.415-1.4957-2.1856-2.0466-4.2419-2.0676-6.3604" fill="none" stop-color="#000000" stroke="#fff" stroke-linecap="round" stroke-linejoin="round" style="-inkscape-stroke:none;font-variation-settings:normal"/>
    <path d="m20.223 18.097c-1.1741 0.52668-1.7874 1.4824-2.0909 2.4951-0.1454 0.48524-0.21968 0.98358-0.25044 1.4541" fill="none" stop-color="#000000" stroke="#fff" stroke-linecap="round" stroke-linejoin="round" style="-inkscape-stroke:none;font-variation-settings:normal"/>
    <path d="m19.864 16.243c-2.2084 1.1797-3.6 3.0129-3.7953 5.8031" fill="none" stop-color="#000000" stroke="#fff" stroke-linecap="round" stroke-linejoin="round" style="-inkscape-stroke:none;font-variation-settings:normal"/>
    <path d="m27.952 18.274c1.3072 1.566 1.4102 2.6636 1.5402 3.7718" fill="none" stop-color="#000000" stroke="#fff" stroke-linecap="round" stroke-linejoin="round" style="-inkscape-stroke:none;font-variation-settings:normal"/>
    <path d="m28.123 16.487c1.8093 0.96332 2.8773 3.2802 3.1069 5.5591" fill="none" stop-color="#000000" stroke="#fff" stroke-linecap="round" stroke-linejoin="round" style="-inkscape-stroke:none;font-variation-settings:normal"/>
</svg>

<svg xmlns="http://www.w3.org/2000/svg" viewBox="0 0 48 48"><defs><style>.a{fill:none;stroke:#fff;stroke-linecap:round;stroke-linejoin:round;}</style></defs><circle class="a" cx="14.2333" cy="27.0453" r="1.1184"/><circle class="a" cx="17.9053" cy="27.0453" r="1.1184"/><path class="a" d="M13.39,26.2787H8.9087V41.3569l4.2062,1.0337H36.0482l.4277-3.2437V26.2785H18.7187"/><path class="a" d="M15.0476,26.2787h2.0439"/><path class="a" d="M22.04,39.61v2.796"/><path class="a" d="M23.795,39.61v2.7987"/><path class="a" d="M25.55,39.61v2.8013"/><path class="a" d="M27.3059,39.61v2.8038"/><path class="a" d="M29.0623,39.61v2.8061"/><path class="a" d="M36.199,41.27h1.7027L42.5,40.3946V23.4269l-4.1349-1.3544H10.5617L5.5,23.4627V40.5014l3.4087.068"/><path class="a" d="M9.2327,22.4376,6.8547,10.4169"/><path class="a" d="M20.2572,5.64c.97,2.3668.6265,4.8431,0,7.343a11.1387,11.1387,0,0,0-.1426,4.67c.1865,1.1759,1.2939,1.3107,1.64.3208.6686,1.8018,2.0559.758,2.1128.0885.1794.5077,1.15,1.99,2.0808-.04.3521,1.43,1.9649,1.1947,2.0071.2756L28.2418,15.3l-.1157,1.209a.53.53,0,0,0,1-.1411A9.4753,9.4753,0,0,0,28.99,11.949a11.0235,11.0235,0,0,1-2.0692-6.3655"/><path class="a" d="M19.8609,16.2646a6.7282,6.7282,0,0,0-3.7984,5.8078"/><path class="a" d="M28.1265,16.5088c1.8108.9641,2.88,3.2829,3.1094,5.5636"/></svg>
